!!!!SEGMENT: pl-kk--kk-i-83--006_anerio-giovanni-francesco--missa-pulchra-es-agnus-dei.krn
!!!cenid: 16xx:1345
!!!COM: Anerio, Giovanni Francesco
!!!COM-rism: pe30000104
!!!CDT: 1569/07/07-1630/06/11
!!!CNT: Italian
!!!OTL: Missa pulchra es – Agnus Dei
!!!PDT:
!!!AGN: Sacred; Mass
!!!SMS-siglum: PL-Kk
!!!SMS-shelfmark: Kk.I.83
!!!NIFC-rismID: 1001151647
!!!URL-scan: http://repozytorium.nifc.pl/skany/pl-kk-nut--i-83
!!!ONB-nifc: UWAGA: części Mszy: 1. Kyrie, 2. Et in terra, 3. Patrem, 4. Sanctus, 5. Benedictus, 6. Agnus Dei
!!!SMS-variant:
!!!SMS-altvar:
**kern	**text	**kern	**text	**kern	**text	**kern	**text	**kern	**text	**kern	**text	**kern	**text	**kern	**text
*part8	*part8	*part7	*part7	*part6	*part6	*part5	*part5	*part4	*part4	*part3	*part3	*part2	*part2	*part1	*part1
*staff8	*staff8	*staff7	*staff7	*staff6	*staff6	*staff5	*staff5	*staff4	*staff4	*staff3	*staff3	*staff2	*staff2	*staff1	*staff1
*I"Baſsus II.	*	*I"Baſsus I.	*	*I"Tenor 2	*	*I"Tenor I.	*	*I"Altus 2.	*	*I"Altus I	*	*I"Cantus 2.	*	*I"Cantus I.	*
*I'B 2	*	*I'B 1	*	*I'T 2	*	*I'T 1	*	*I'A 2	*	*I'A 1	*	*I'C 2	*	*I'C 1	*
*clefF4	*	*clefF4	*	*clefC4	*	*clefC4	*	*clefC3	*	*clefC3	*	*clefC1	*	*clefC1	*
*k[]	*	*k[]	*	*k[]	*	*k[]	*	*k[]	*	*k[]	*	*k[]	*	*k[]	*
*M2/1	*	*M2/1	*	*M2/1	*	*M2/1	*	*M2/1	*	*M2/1	*	*M2/1	*	*M2/1	*
*met(C|)	*	*met(C|)	*	*met(C|)	*	*met(C|)	*	*met(C|)	*	*met(C|)	*	*met(C|)	*	*met(C|)	*
*all\right	*	*all\right	*	*all\right	*	*all\right	*	*all\right	*	*all\right	*	*all\right	*	*all\right	*
=1-	=1-	=1-	=1-	=1-	=1-	=1-	=1-	=1-	=1-	=1-	=1-	=1-	=1-	=1-	=1-
!	!	!	!	!	!	!	!	!	!	!LO:TX:t=P:problem:kreska pseudotaktowa	!	!	!	!	!
00r	.	1A	A-	00r	.	2r	.	00r	.	1r	.	00r	.	0r	.
*	*	*	*	*	*	*2\right	*	*	*	*	*	*	*	*	*
!	!	!	!	!	!	!LO:TX:t=P:problem:kreska pseudotaktowa	!	!	!	!	!	!	!	!	!
.	.	.	.	.	.	2A\	A-	.	.	.	.	.	.	.	.
*	*	*2\right	*	*	*	*	*	*	*	*	*	*	*	*	*
.	.	2G#X\	-gnus	.	.	2B\	-gnus	.	.	1e	A-	.	.	.	.
!	!	!LO:TX:t=P:problem:kreska pseudotaktowa	!	!	!	!	!	!	!	!	!	!	!	!	!
.	.	2A\	De-	.	.	2c#X\	De-	.	.	.	.	.	.	.	.
=2-	=2-	=2-	=2-	=2-	=2-	=2-	=2-	=2-	=2-	=2-	=2-	=2-	=2-	=2-	=2-
*	*	*	*	*	*	*	*	*	*	*2\right	*	*	*	*	*
!	!	!	!	!	!	!	!	!	!	!	!	!	!	!LO:TX:t=P:problem:kreska pseudotaktowa	!
.	.	2D\	-i	.	.	2d\	-i	.	.	2f\	-gnus	.	.	1r	.
*	*	*	*ij	*	*	*	*	*	*	*	*	*	*	*	*
!	!	!	!	!	!	!LO:TX:t=P:problem:kreska pseudotaktowa	!	!	!	!LO:TX:t=P:problem:kreska pseudotaktowa	!	!	!	!	!
.	.	2E\	A-	.	.	2B\	.	.	.	2e\	De-	.	.	.	.
*	*	*	*	*	*	*	*ij	*	*	*	*	*	*	*	*
!	!	!LO:TX:t=P:problem:kreska pseudotaktowa	!	!	!	!	!	!	!	!	!	!	!	!	!
.	.	1F	-gnus	.	.	1A	A-	.	.	2c/	.	.	.	1a	A-
!	!	!	!	!	!	!	!	!	!	!LO:TX:t=P:problem:kreska pseudotaktowa	!	!	!	!	!
.	.	.	.	.	.	.	.	.	.	2d\	-i	.	.	.	.
=3-	=3-	=3-	=3-	=3-	=3-	=3-	=3-	=3-	=3-	=3-	=3-	=3-	=3-	=3-	=3-
*	*	*	*	*	*	*	*	*	*	*	*ij	*	*	*2\right	*
!	!	!	!	!LO:TX:t=P:problem:kreska pseudotaktowa	!	!	!	!LO:TX:t=P:problem:kreska pseudotaktowa	!	!	!	!LO:TX:t=P:problem:kreska pseudotaktowa	!	!	!
0r	.	2E\	De-	0r	.	2B\	-gnus	0r	.	2.e\	A-	0r	.	2g#X\	.
!	!	!	!	!	!	!LO:TX:t=P:problem:kreska pseudotaktowa	!	!	!	!	!	!	!	!LO:TX:t=P:problem:kreska pseudotaktowa	!
.	.	2A\	-i	.	.	2cny\	De-	.	.	.	.	.	.	2a\	.
*	*	*	*Xij	*	*	*	*	*	*	*	*	*	*	*	*
!	!	!	!	!	!	!	!	!	!	!LO:TX:a:t=P:problem:# above	!	!	!	!	!
.	.	.	.	.	.	.	.	.	.	4f#X\	.	.	.	.	.
*	*	*	*ij	*	*	*	*	*	*	*	*	*	*	*	*
.	.	2Gny\	A-	.	.	2B\	-i	.	.	2g\	.	.	.	2d/	-gnus
*	*	*	*	*	*	*	*	*	*	*	*	*	*	*	*
!	!	!LO:TX:t=P:problem:kreska pseudotaktowa	!	!	!	!	!	!	!	!LO:TX:t=P:problem:kreska pseudotaktowa	!	!	!	!	!
.	.	2E\	-gnus	.	.	2c#X\	A-	.	.	2G/	-gnus	.	.	2e/	.
=4-	=4-	=4-	=4-	=4-	=4-	=4-	=4-	=4-	=4-	=4-	=4-	=4-	=4-	=4-	=4-
*	*	*	*	*2\right	*	*	*	*	*	*	*	*	*	*	*
!LO:TX:t=P:problem:kreska pseudotaktowa	!	!	!	!	!	!	!	!	!	!LO:LB:g=original	!	!	!	!	!
1r	.	1D	De-	2.A\	A-	2d\	-gnus	2r	.	2A/	De-	0a	A-	1f	De-
!	!	!	!	!	!	!LO:TX:t=P:problem:kreska pseudotaktowa	!	!	!	!	!	!	!	!	!
.	.	.	.	.	.	2A/	De-	2.A/	A-	2d\	.	.	.	.	.
!	!	!	!	!LO:TX:t=P:problem:kreska pseudotaktowa	!	!	!	!	!	!	!	!	!	!	!
.	.	.	.	4B\	.	.	.	.	.	.	.	.	.	.	.
!	!	!LO:TX:t=P:problem:kreska pseudotaktowa	!	!	!	!	!	!	!	!LO:TX:t=P:problem:kreska pseudotaktowa	!	!	!	!LO:TX:t=P:problem:kreska pseudotaktowa	!
1AA	A-	1AA	-i	4c#X\	.	1A	-i	.	.	1c#X	-i	.	.	1e	-i
*	*	*	*Xij	*	*	*	*	*	*	*	*	*	*	*	*
.	.	.	.	4d\	.	.	.	4B/	-gnus	.	.	.	.	.	.
*	*	*	*	*	*	*	*	*2\right	*	*	*	*	*	*	*
!	!	!	!	!LO:TX:t=P:problem:kreska pseudotaktowa	!	!	!	!LO:TX:t=P:problem:kreska pseudotaktowa	!	!	!	!	!	!	!
.	.	.	.	2e\	-gnus	.	.	2c#X\	De-	.	.	.	.	.	.
=5-	=5-	=5-	=5-	=5-	=5-	=5-	=5-	=5-	=5-	=5-	=5-	=5-	=5-	=5-	=5-
*	*	*	*	*	*	*	*	*	*	*	*	*2\right	*	*	*
!	!	!	!	!	!	!LO:TX:t=P:problem:kreska pseudotaktowa	!	!	!	!	!	!	!	!	!
2BB/	-gnus	0r	.	2d\	.	0r	.	2d\	.	0r	.	2g#X\	-gnus	0r	.
!LO:TX:t=P:problem:kreska pseudotaktowa	!	!	!	!	!	!	!	!	!	!	!	!LO:TX:t=P:problem:kreska pseudotaktowa	!	!	!
2C#X/	De-	.	.	1A	De-	.	.	2.e\	.	.	.	2a\	De-	.	.
2D/	.	.	.	.	.	.	.	.	.	.	.	2f/	.	.	.
.	.	.	.	.	.	.	.	4d\	.	.	.	.	.	.	.
!LO:TX:t=P:problem:kreska pseudotaktowa	!	!	!	!LO:TX:t=P:problem:kreska pseudotaktowa	!	!	!	!	!	!	!	!	!	!	!
2BB-X/	.	.	.	2G/	.	.	.	1d\	.	.	.	2gny/	.	.	.
=6-	=6-	=6-	=6-	=6-	=6-	=6-	=6-	=6-	=6-	=6-	=6-	=6-	=6-	=6-	=6-
!	!	!LO:TX:t=P:problem:kreska pseudotaktowa	!	!	!	!	!	!	!	!	!	!	!	!LO:TX:t=P:problem:kreska pseudotaktowa	!
1AA	.	1r	.	2F/	.	2r	.	.	.	2r	.	1a	.	1r	.
!	!	!	!	!	!	!	!	!LO:TX:t=P:problem:kreska pseudotaktowa	!	!	!	!	!	!	!
.	.	.	.	2E/	.	2.A\	A-	2c#X\	-i	2.a\	A-	.	.	.	.
*	*	*	*ij	*	*	*	*	*	*	*	*	*	*	*	*ij
!LO:TX:t=P:problem:kreska pseudotaktowa	!	!	!	!LO:TX:t=P:problem:kreska pseudotaktowa	!	!	!	!	!	!	!	!LO:TX:t=P:problem:kreska pseudotaktowa	!	!	!
1D	-i	1D	A-	1D	-i	.	.	1d	.	.	.	1f#X	-i	1dd	A-
.	.	.	.	.	.	8B\L	.	.	.	4g\	.	.	.	.	.
.	.	.	.	.	.	8cny\J	.	.	.	.	.	.	.	.	.
!	!	!	!	!	!	!	!	!	!	!LO:TX:t=P:problem:kreska pseudotaktowa	!	!	!	!	!
.	.	.	.	.	.	4d\	.	.	.	2f#X\	.	.	.	.	.
!	!	!	!	!	!	!LO:TX:t=P:problem:kreska pseudotaktowa	!	!	!	!	!	!	!	!	!
.	.	.	.	.	.	4A\	-gnus	.	.	.	.	.	.	.	.
=7-	=7-	=7-	=7-	=7-	=7-	=7-	=7-	=7-	=7-	=7-	=7-	=7-	=7-	=7-	=7-
!	!	!	!	!	!	!	!	!LO:TX:t=P:problem:kreska pseudotaktowa	!	!	!	!	!	!	!
0r	.	2E\	.	0r	.	2e\	De-	0r	.	2g\	.	0r	.	2cc#X\	.
!	!	!LO:TX:t=P:problem:kreska pseudotaktowa	!	!	!	!	!	!	!	!	!	!	!	!LO:TX:t=P:problem:kreska pseudotaktowa	!
.	.	2F#X\	-gnus	.	.	2A\	-i	.	.	2.a\	-gnus	.	.	2dd\	.
.	.	2G\	De-	.	.	2d\	A-	.	.	.	.	.	.	2b\	-gnus
.	.	.	.	.	.	.	.	.	.	4g\	.	.	.	.	.
!	!	!	!	!	!	!LO:TX:t=P:problem:kreska pseudotaktowa	!	!	!	!	!	!	!	!	!
.	.	2E\	.	.	.	2G/	-gnus	.	.	1g\	De-	.	.	2cc#X\	.
=8-	=8-	=8-	=8-	=8-	=8-	=8-	=8-	=8-	=8-	=8-	=8-	=8-	=8-	=8-	=8-
!	!	!	!	!LO:TX:t=P:problem:kreska pseudotaktowa	!	!	!	!	!	!	!	!	!	!	!
*	*	*	*	*	*	*lig	*	*	*	*	*	*	*	*	*
!LO:TX:t=P:problem:kreska pseudotaktowa	!	!LO:LB:g=original	!	!	!	!LO:LB:g=original	!	!	!	!	!	!LO:TX:t=P:problem:kreska pseudotaktowa	!	!	!
1r	.	1D	.	1r	.	1A	De-	2r	.	.	.	1r	.	1dd	De-
*	*	*	*	*	*	*	*	*	*ij	*	*	*	*	*	*
.	.	.	.	.	.	.	.	2.d\	A-	2f#X\	.	.	.	.	.
*	*ij	*	*	*	*ij	*	*	*	*	*	*	*	*ij	*	*
!	!	!LO:TX:t=P:problem:kreska pseudotaktowa	!	!	!	!LO:TX:t=P:problem:kreska pseudotaktowa	!	!	!	!LO:TX:t=P:problem:kreska pseudotaktowa	!	!	!	!LO:TX:t=P:problem:kreska pseudotaktowa	!
1G	A-	1GG	-i	1B	A-	1G	-i	.	.	1g	-i	1dd	A-	1b	-i
*	*	*	*	*	*	*	*Xij	*	*	*	*	*	*	*	*
.	.	.	.	.	.	.	.	8e\L	.	.	.	.	.	.	.
.	.	.	.	.	.	.	.	8f\J	.	.	.	.	.	.	.
.	.	.	.	.	.	.	.	4g\	.	.	.	.	.	.	.
.	.	.	.	.	.	.	.	4d\	-gnus-	.	.	.	.	.	.
!	!	!	!	!	!	!	!	!LO:TX:t=P:problem:kreska pseudotaktowa	!	!	!	!	!	!	!
*	*	*	*	*	*	*Xlig	*	*	*	*	*	*	*	*	*
=9-	=9-	=9-	=9-	=9-	=9-	=9-	=9-	=9-	=9-	=9-	=9-	=9-	=9-	=9-	=9-
*2\right	*	*	*	*	*	*	*	*	*	*	*	*	*	*	*
2A\	.	0r	.	2cny\	.	0r	.	1f	-De-	0r	.	2cc\	-gnus	0r	.
!LO:TX:t=P:problem:kreska pseudotaktowa	!	!	!	!LO:TX:t=P:problem:kreska pseudotaktowa:między nutą a kropką	!	!	!	!	!	!	!	!	!	!	!
2B\	-gnus	.	.	2.d\	-gnus	.	.	.	.	.	.	4b\	De-	.	.
!	!	!	!	!	!	!	!	!	!	!	!	!LO:TX:t=P:problem:kreska pseudotaktowa	!	!	!
.	.	.	.	.	.	.	.	.	.	.	.	4a\	.	.	.
2c\	De-	.	.	.	.	.	.	2e\	-i	.	.	2g/	.	.	.
.	.	.	.	4c\	.	.	.	.	.	.	.	.	.	.	.
!	!	!	!	!	!	!	!	!LO:LB:g=original	!	!	!	!	!	!	!
2A\	.	.	.	1c\	De-	.	.	4d\	A-	.	.	2f#X/	.	.	.
!	!	!	!	!	!	!	!	!LO:TX:t=P:problem:kreska pseudotaktowa	!	!	!	!	!	!	!
.	.	.	.	.	.	.	.	4cny\	-gnus	.	.	.	.	.	.
=10-	=10-	=10-	=10-	=10-	=10-	=10-	=10-	=10-	=10-	=10-	=10-	=10-	=10-	=10-	=10-
!	!	!LO:TX:t=P:problem:kreska pseudotaktowa	!	!	!	!	!	!	!	!	!	!LO:TX:t=P:problem:kreska pseudotaktowa	!	!LO:TX:t=P:problem:kreska pseudotaktowa	!
1G	.	1r	.	.	.	2r	.	1d	De-	4d\	A-	0g	-i	1r	.
.	.	.	.	.	.	.	.	.	.	8e\L	.	.	.	.	.
.	.	.	.	.	.	.	.	.	.	8fny\J	.	.	.	.	.
*	*	*	*	*	*	*	*ij	*	*	*	*	*	*	*	*
.	.	.	.	2B\	.	2.G/	A-	.	.	2.g\	.	.	.	.	.
!LO:TX:t=P:problem:kreska pseudotaktowa	!	!	!	!LO:TX:t=P:problem:kreska pseudotaktowa	!	!	!	!LO:TX:t=P:problem:kreska pseudotaktowa	!	!	!	!	!	!	!
1Cny	-i	1C	A-	1c	-i	.	.	1e	-i	.	.	.	.	1e	A-
*	*Xij	*	*	*	*	*	*	*	*	*	*	*	*	*	*
.	.	.	.	.	.	8A\L	.	.	.	4f\	.	.	.	.	.
.	.	.	.	.	.	8B\J	.	.	.	.	.	.	.	.	.
!	!	!	!	!	!	!LO:TX:t=P:problem:kreska pseudotaktowa	!	!	!	!LO:TX:t=P:problem:kreska pseudotaktowa	!	!	!	!	!
.	.	.	.	.	.	2c\	.	.	.	2e\	.	.	.	.	.
=11-	=11-	=11-	=11-	=11-	=11-	=11-	=11-	=11-	=11-	=11-	=11-	=11-	=11-	=11-	=11-
0r	.	2D\	.	0r	.	1B-X	-gnus	0r	.	2d\	-gnus	0r	.	2f/	.
!	!	!LO:TX:t=P:problem:kreska pseudotaktowa	!	!	!	!	!	!	!	!	!	!	!	!	!
.	.	2E\	-gnus	.	.	.	.	.	.	2G/	De-	.	.	2.gny/	.
.	.	2Fny\	De-	.	.	2A/	De-	.	.	2cny/	.	.	.	.	.
.	.	.	.	.	.	.	.	.	.	.	.	.	.	4f/	-gnus
!	!	!	!	!	!	!	!	!	!	!	!	!	!	!LO:LB:g=original	!
.	.	2D/	.	.	.	4G/	.	.	.	2B/	.	.	.	1f/	De-
!	!	!	!	!	!	!LO:TX:t=P:problem:kreska pseudotaktowa	!	!	!	!	!	!	!	!	!
.	.	.	.	.	.	4F/	.	.	.	.	.	.	.	.	.
=12-	=12-	=12-	=12-	=12-	=12-	=12-	=12-	=12-	=12-	=12-	=12-	=12-	=12-	=12-	=12-
*	*ij	*	*	*	*	*	*	*	*	*	*	*	*	*	*
!	!	!LO:TX:t=P:problem:kreska pseudotaktowa	!	!	!	!	!	!	!	!	!	!	!	!	!
1C	A-	1C	-i	2G/	A-	1G	-i	1g	A-	0.c	-i	1cc	A-	.	.
*	*	*	*Xij	*	*	*	*	*	*	*	*Xij	*	*	*	*
!	!	!	!	!	!	!	!	!	!	!	!	!	!	!LO:TX:t=P:problem:kreska pseudotaktowa	!
.	.	.	.	2.c\	.	.	.	.	.	.	.	.	.	2e/	-i
*	*	*	*ij	*	*	*	*	*	*	*	*	*	*	*	*
!LO:TX:t=P:problem:kreska pseudotaktowa	!	!	!	!	!	!LO:TX:t=P:problem:kreska pseudotaktowa	!	!LO:TX:t=P:problem:kreska pseudotaktowa	!	!	!	!LO:TX:t=P:problem:kreska pseudotaktowa	!	!	!
1F	-gnus	4FF/	A-	.	.	1A	A-	1f	.	.	.	1cc	-gnus	4a\	A-
.	.	4GG/	.	4B\	.	.	.	.	.	.	.	.	.	4b\	.
!	!	!	!	!LO:TX:t=P:problem:kreska pseudotaktowa	!	!	!	!	!	!	!	!	!	!	!
.	.	4AA/	-gnus	2A/	-gnus	.	.	.	.	.	.	.	.	4ccny\	.
!	!	!LO:TX:t=P:problem:kreska pseudotaktowa	!	!	!	!	!	!	!	!	!	!	!	!LO:TX:t=P:problem:kreska pseudotaktowa	!
.	.	4FF/	.	.	.	.	.	.	.	.	.	.	.	4dd\	.
=13-	=13-	=13-	=13-	=13-	=13-	=13-	=13-	=13-	=13-	=13-	=13-	=13-	=13-	=13-	=13-
!	!	!	!	!LO:LB:g=original	!	!	!	!	!	!LO:TX:t=P:problem:kreska pseudotaktowa	!	!	!	!	!
2E\	De-	2C/	De-	2c\	De-	2G/	-gnus	2g\	.	.	.	1cc	De-	2ee\	.
!	!	!LO:TX:t=P:problem:kreska pseudotaktowa	!	!	!	!	!	!	!	!	!	!	!	!	!
2F\	-i	2FF/	-i	1A	.	2A/	De-	4f\	-gnus	.	.	.	.	2.a\	-gnus-
*	*Xij	*	*Xij	*	*	*	*	*	*	*	*	*	*	*	*
.	.	.	.	.	.	.	.	4e\	.	.	.	.	.	.	.
*	*ij	*	*	*	*	*	*	*	*	*	*	*	*	*	*
!LO:LB:g=original	!	!	!	!	!	!LO:TX:t=P:problem:kreska pseudotaktowa	!	!LO:TX:t=P:problem:kreska pseudotaktowa	!	!	!	!	!	!	!
4D\	A-	2r	.	.	.	1F	-i	1f	De-	2r	.	1dd	-i	.	.
4E\	.	.	.	.	.	.	.	.	.	.	.	.	.	4g\	.
*	*	*	*ij	*	*	*	*	*	*	*	*ij	*	*	*	*
!	!	!LO:TX:t=P:problem:kreska pseudotaktowa	!	!	!	!	!	!	!	!	!	!	!	!	!
4F\	.	2D/	A-	4D/	.	.	.	.	.	2A/	A-	.	.	4a\	.
!LO:TX:t=P:problem:kreska pseudotaktowa	!	!	!	!LO:TX:t=P:problem:kreska pseudotaktowa	!	!	!	!	!	!	!	!	!	!LO:TX:t=P:problem:kreska pseudotaktowa	!
4D\	.	.	.	4d\	.	.	.	.	.	.	.	.	.	4b\	.
=14-	=14-	=14-	=14-	=14-	=14-	=14-	=14-	=14-	=14-	=14-	=14-	=14-	=14-	=14-	=14-
1A	gnus	4AA/	.	2c\	-i	2r	.	2e\	.	2.A/	-gnus	2ee\	A-	2cc\	.
.	.	4BB/	.	.	.	.	.	.	.	.	.	.	.	.	.
!	!	!	!	!	!	!	!	!	!	!	!	!LO:TX:t=P:problem:kreska pseudotaktowa	!	!	!
.	.	4C/	-gnus	2.e\	A-	2.E/	A-	2A/	-i	.	.	2cc\	-gnus	1a	-De-
!	!	!LO:TX:t=P:problem:kreska pseudotaktowa	!	!	!	!	!	!	!	!	!	!	!	!	!
.	.	4AA/	.	.	.	.	.	.	.	4c/	.	.	.	.	.
*	*	*lig	*	*	*	*	*	*	*	*	*	*	*	*	*
!LO:TX:t=P:problem:kreska pseudotaktowa	!	!	!	!	!	!	!	!	!	!	!	!	!	!	!
0E	De-	1E	De-	.	.	.	.	2B/	A-	0e	De-	0b	De-	.	.
.	.	.	.	8d\L	.	4F#X/	.	.	.	.	.	.	.	.	.
.	.	.	.	8c\J	.	.	.	.	.	.	.	.	.	.	.
!	!	!	!	!	!	!LO:TX:b:t=P:problem:# below	!	!LO:TX:t=P:problem:kreska pseudotaktowa	!	!	!	!	!	!	!
.	.	.	.	1B\	-gnus	4G#X/	.	2e\	gnus	.	.	.	.	4g#X/	.
!	!	!	!	!	!	!LO:TX:t=P:problem:kreska pseudotaktowa	!	!	!	!	!	!	!	!LO:TX:t=P:problem:kreska pseudotaktowa	!
.	.	.	.	.	.	4A/	.	.	.	.	.	.	.	4f#X/	.
=15-	=15-	=15-	=15-	=15-	=15-	=15-	=15-	=15-	=15-	=15-	=15-	=15-	=15-	=15-	=15-
.	.	1EE	.	.	.	2Bny\	-gnus	1e	De-	.	.	.	.	1g#X	.
!	!	!	!	!LO:TX:t=P:problem:kreska pseudotaktowa	!	!	!	!	!	!	!	!	!	!	!
.	.	.	.	2B\	De-	2E/	De-	.	.	.	.	.	.	.	.
*	*	*Xlig	*	*	*	*	*	*	*	*	*	*	*	*	*
!LO:TX:t=P:problem:kreska pseudotaktowa	!	!LO:TX:t=P:problem:kreska pseudotaktowa	!	!LO:TX:t=P:problem:kreska pseudotaktowa	!	!LO:TX:t=P:problem:kreska pseudotaktowa	!	!LO:TX:t=P:problem:kreska pseudotaktowa	!	!LO:TX:t=P:problem:kreska pseudotaktowa	!	!LO:TX:a:t=P:problem:# above	!	!LO:TX:t=P:problem:kreska pseudotaktowa	!
0AA	-i	1AA	-i	0A	-i	1E	-i	0e	-i	1c#X	-i	0cc#X	-i	1a	-i
*	*Xij	*	*Xij	*	*Xij	*	*Xij	*	*Xij	*	*Xij	*	*Xij	*	*Xij
=16-	=16-	=16-	=16-	=16-	=16-	=16-	=16-	=16-	=16-	=16-	=16-	=16-	=16-	=16-	=16-
!	!	!	!	!	!	!	!	!	!	!	!	!LO:TX:t=P:problem:kreska pseudotaktowa	!	!	!
.	.	2r	.	.	.	2E/	Qui	.	.	2r	.	.	.	2r	.
!	!	!	!	!	!	!	!	!	!	!LO:TX:b:t=P:problem:# below	!	!	!	!	!
.	.	2AA/	Qui	.	.	1A	tol-	.	.	2c#X/	qui	.	.	2a\	Qui
!	!	!LO:TX:t=P:problem:kreska pseudotaktowa	!	!	!	!	!	!	!	!LO:TX:t=P:problem:kreska pseudotaktowa	!	!LO:LB:g=original	!	!LO:TX:t=P:problem:kreska pseudotaktowa	!
2r	.	1D	tol-	2r	.	.	.	2r	.	1d	tol-	4r	.	1a	tol-
.	.	.	.	.	.	.	.	.	.	.	.	4a\	qui	.	.
!LO:TX:t=P:problem:kreska pseudotaktowa	!	!	!	!	!	!	!	!	!	!	!	!LO:TX:t=P:problem:kreska pseudotaktowa	!	!	!
2D/	qui	.	.	4A/	qui	2.D/	-lis	2f#X\	qui	.	.	2dd\	tol-	.	.
.	.	.	.	4.d\	tol-	.	.	.	.	.	.	.	.	.	.
=17-	=17-	=17-	=17-	=17-	=17-	=17-	=17-	=17-	=17-	=17-	=17-	=17-	=17-	=17-	=17-
!	!	!	!	!	!	!	!	!	!	!LO:LB:g=original	!	!	!	!	!
1G	tol-	2GG/	-lis	.	.	.	.	2.g\	tol-	2d\	-lis	2dd\	-lis	2b\	-lis
.	.	.	.	8c\L	.	.	.	.	.	.	.	.	.	.	.
*	*	*	*	*	*	*	*ij	*	*	*	*	*	*	*	*
.	.	.	.	8B\	.	4D/	Qui	.	.	.	.	.	.	.	.
.	.	.	.	8A\J	.	.	.	.	.	.	.	.	.	.	.
*	*	*	*ij	*	*	*	*	*	*	*	*ij	*	*	*	*ij
!	!	!	!	!	!	!LO:TX:t=P:problem:kreska pseudotaktowa	!	!	!	!	!	!LO:TX:t=P:problem:kreska pseudotaktowa	!	!	!
!	!	!	!	!	!	!LO:LB:g=original	!	!	!	!	!	!	!	!	!
.	.	2GG/	Qui	2B\	-lis	2Gny/	tol-	.	.	2d\	qui	2dd\	pec-	2b\	Qui
!	!	!	!	!	!	!	!	!LO:TX:t=P:problem:kreska pseudotaktowa	!	!	!	!	!	!	!
.	.	.	.	.	.	.	.	4f#y\	.	.	.	.	.	.	.
!LO:TX:t=P:problem:kreska pseudotaktowa	!	!	!	!LO:TX:t=P:problem:kreska pseudotaktowa	!	!	!	!	!	!	!	!	!	!	!
1C	-lis	1C	tol-	1c	.	1G	-lis	4e\	.	2e\	.	1ccny	-ca-	1gny	tol-
*	*	*	*	*	*	*	*Xij	*	*	*	*	*	*	*	*
.	.	.	.	.	.	.	.	4c\	.	.	.	.	.	.	.
.	.	.	.	.	.	.	.	2e\	-lis	2.cny/	tol-	.	.	.	.
=18-	=18-	=18-	=18-	=18-	=18-	=18-	=18-	=18-	=18-	=18-	=18-	=18-	=18-	=18-	=18-
!	!	!LO:TX:t=P:problem:kreska pseudotaktowa	!	!	!	!LO:TX:t=P:problem:kreska pseudotaktowa	!	!	!	!	!	!	!	!LO:TX:t=P:problem:kreska pseudotaktowa	!
2r	.	1FF	-lis	2r	.	1r	.	2fny\	.	.	.	2cc\	-ta	1a	-lis
*	*	*	*Xij	*	*	*	*	*	*	*	*	*	*	*	*Xij
.	.	.	.	.	.	.	.	.	.	4B/	.	.	.	.	.
!LO:TX:t=P:problem:kreska pseudotaktowa	!	!	!	!	!	!	!	!	!	!	!	!LO:TX:t=P:problem:kreska pseudotaktowa	!	!	!
2F\	pec-	.	.	2A/	pec-	.	.	4r	.	2A/	-lis	2cc\	pec-	.	.
*	*	*	*	*	*	*	*	*	*	*	*Xij	*	*	*	*
!	!	!	!	!	!	!	!	!LO:TX:t=P:problem:kreska pseudotaktowa	!	!	!	!	!	!	!
.	.	.	.	.	.	.	.	4a\	pec-	.	.	.	.	.	.
!	!	!	!	!	!	!	!	!	!	!LO:TX:t=P:problem:kreska pseudotaktowa	!	!	!	!	!
4G\	-ca-	1r	.	4d\	-ca-	2r	.	4g\	-ca-	1r	.	4b-X\	-ca-	1r	.
4B-X\	-ta	.	.	4d\	-ta	.	.	4d\	-ta	.	.	4g\	-ta	.	.
!	!	!	!	!LO:TX:t=P:problem:kreska pseudotaktowa	!	!	!	!	!	!	!	!LO:TX:t=P:problem:kreska pseudotaktowa	!	!	!
2A\	mun-	.	.	2c#X\	mun-	2A/	pec-	2e\	mun-	.	.	2a\	mun-	.	.
=19-	=19-	=19-	=19-	=19-	=19-	=19-	=19-	=19-	=19-	=19-	=19-	=19-	=19-	=19-	=19-
!LO:TX:t=P:problem:kreska pseudotaktowa	!	!	!	!	!	!	!	!LO:TX:t=P:problem:kreska pseudotaktowa	!	!	!	!	!	!	!
1D	-di	2r	.	1d	-di	4c\	-ca-	1f#X	-di	2r	.	1a	-di	2r	.
.	.	.	.	.	.	4G/	-ta	.	.	.	.	.	.	.	.
!	!	!LO:TX:t=P:problem:kreska pseudotaktowa	!	!	!	!LO:TX:t=P:problem:kreska pseudotaktowa	!	!	!	!	!	!	!	!LO:TX:t=P:problem:kreska pseudotaktowa	!
.	.	2D/	pec-	.	.	2A/	mun-	.	.	2d\	pec-	.	.	2f#X/	pec-
!	!	!LO:LB:g=original	!	!LO:TX:t=P:problem:kreska pseudotaktowa	!	!	!	!	!	!	!	!LO:TX:t=P:problem:kreska pseudotaktowa	!	!LO:LB:g=original	!
1r	.	4C/	-ca-	1r	.	1G	-di	1r	.	4e\	-ca-	1r	.	4g/	-ca-
.	.	4E\	-ta	.	.	.	.	.	.	4c#X\	-ta	.	.	4g/	-ta
!	!	!	!	!	!	!	!	!	!	!	!	!	!	!LO:TX:t=P:problem:kreska pseudotaktowa	!
.	.	2D/	mun-	.	.	.	.	.	.	2d\	mun-	.	.	2f#X/	mun-
=20-	=20-	=20-	=20-	=20-	=20-	=20-	=20-	=20-	=20-	=20-	=20-	=20-	=20-	=20-	=20-
!	!	!	!	!	!	!LO:TX:t=P:problem:za xml-owcem. Niezgodność w pionach z użyciem pauzy 1r	!	!	!	!	!	!	!	!	!
!	!	!LO:TX:t=P:problem:kreska pseudotaktowa	!	!	!LO:N:vis=1	!	!	!	!	!LO:TX:t=P:problem:kreska pseudotaktowa	!	!	!	!	!
2r	.	1GG	-di	2r	.	0r	.	2r	.	1d	-di	2r	.	1g	-di
*	*	*	*	*	*ij	*	*	*	*ij	*	*	*	*	*	*
!LO:TX:t=P:problem:kreska pseudotaktowa	!	!	!	!LO:TX:t=P:problem:kreska pseudotaktowa	!	!	!	!LO:TX:t=P:problem:kreska pseudotaktowa	!	!	!	!LO:TX:t=P:problem:kreska pseudotaktowa	!	!	!
2G\	pec-	.	.	2B\	pec-	.	.	2d\	pec-	.	.	2g\	pec-	.	.
!	!	!	!	!	!	!	!	!	!	!	!	!	!	!LO:TX:t=P:problem:kreska pseudotaktowa	!
4F\	-ca-	1r	.	4cny\	-ca-	.	.	4fny\	-ca-	2r	.	4a\	-ca-	1r	.
4A\	-ta	.	.	4c\	-ta	.	.	4g\	-ta	.	.	4cc\	-ta	.	.
!LO:TX:t=P:problem:kreska pseudotaktowa	!	!	!	!LO:TX:t=P:problem:kreska pseudotaktowa	!	!	!	!LO:LB:g=original	!	!	!	!LO:TX:t=P:problem:kreska pseudotaktowa	!	!	!
2G\	mun-	.	.	2d\	mun-	.	.	2g\	mun-	2d\	Mi-	2bny\	mun-	.	.
=21-	=21-	=21-	=21-	=21-	=21-	=21-	=21-	=21-	=21-	=21-	=21-	=21-	=21-	=21-	=21-
!	!	!	!	!LO:LB:g=original	!	!	!	!LO:TX:t=P:problem:kreska pseudotaktowa	!	!	!	!LO:TX:t=P:problem:kreska pseudotaktowa	!	!	!
1C	-di	2r	.	1c	-di	4r	.	1e	-di	2g\	.	1cc	-di	2r	.
*	*	*	*	*	*Xij	*	*	*	*Xij	*	*	*	*	*	*
.	.	.	.	.	.	2G/	Mi-	.	.	.	.	.	.	.	.
!	!	!LO:TX:t=P:problem:kreska pseudotaktowa	!	!	!	!	!	!	!	!LO:TX:t=P:problem:kreska pseudotaktowa	!	!	!	!	!
.	.	2C/	Mi-	.	.	.	.	.	.	2e\	-ſe-	.	.	1g	Mi-
!	!	!	!	!	!	!LO:TX:t=P:problem:kreska pseudotaktowa	!	!	!	!	!	!	!	!	!
.	.	.	.	.	.	4c\	.	.	.	.	.	.	.	.	.
!LO:TX:t=P:problem:kreska pseudotaktowa	!	!	!	!	!	!	!	!	!	!	!	!	!	!	!
00r	.	2G\	-ſe-	0r	.	2B\	-ſe-	1r	.	2d\	-re-	00r	.	.	.
!	!	!	!	!	!	!	!	!	!	!	!	!	!	!LO:TX:t=P:problem:kreska pseudotaktowa	!
.	.	2E\	-re-	.	.	1c\	-re-	.	.	2e\	-re	.	.	2g/	-ſe-
=22-	=22-	=22-	=22-	=22-	=22-	=22-	=22-	=22-	=22-	=22-	=22-	=22-	=22-	=22-	=22-
*	*	*	*	*	*	*	*	*	*	*lig	*	*	*	*	*
.	.	2F\	-re	.	.	.	.	0r	.	1d	no-	.	.	2a\	-re-
!	!	!LO:TX:t=P:problem:kreska pseudotaktowa	!	!	!	!	!	!	!	!	!	!	!	!	!
.	.	2G\	.	.	.	2.B\	-re	.	.	.	.	.	.	4g/	.
*	*	*	*	*	*	*	*	*	*	*	*	*	*	*	*ij
!	!	!	!	!	!	!	!	!	!	!	!	!	!	!LO:TX:t=P:problem:zbędny znak powtórzenia tekstu	!
!	!	!	!	!	!	!	!	!	!	!	!	!	!	!LO:TX:t=P:problem:kreska pseudotaktowa	!
.	.	.	.	.	.	.	.	.	.	.	.	.	.	4fny/	.
!	!	!	!	!LO:TX:t=P:problem:kreska pseudotaktowa	!	!	!	!	!	!	!	!	!	!	!
.	.	1A	no-	1r	.	.	.	.	.	1cny	.	.	.	2e/	.
.	.	.	.	.	.	4A/	.	.	.	.	.	.	.	.	.
.	.	.	.	.	.	1A\	no-	.	.	.	.	.	.	2e/	-re
*	*	*	*	*	*	*	*	*	*	*Xlig	*	*	*	*	*Xij
=23-	=23-	=23-	=23-	=23-	=23-	=23-	=23-	=23-	=23-	=23-	=23-	=23-	=23-	=23-	=23-
*	*	*	*	*	*	*	*	*	*	*lig	*	*	*	*	*
.	.	1E	.	2r	.	.	.	2B/	Mi-	1B	-bis	.	.	1e	no-
!	!	!	!	!	!	!LO:TX:b:t=P:problem:# below	!	!	!	!	!	!	!	!	!
.	.	.	.	2E/	Mi-	2G#X/	-bis	2.e\	-ſe-	.	.	.	.	.	.
!	!	!LO:TX:t=P:problem:kreska pseudotaktowa	!	!LO:TX:t=P:problem:kreska pseudotaktowa	!	!LO:TX:t=P:problem:kreska pseudotaktowa	!	!	!	!LO:TX:t=P:problem:kreska pseudotaktowa	!	!	!	!LO:TX:t=P:problem:kreska pseudotaktowa	!
2r	.	1AA	-bis	1A	-ſe-	1A	.	.	.	1c	.	4r	.	1e	-bis
.	.	.	.	.	.	.	.	4A/	.	.	.	2e/	Mi-	.	.
2AA/	Mi-	.	.	.	.	.	.	4c\	.	.	.	.	.	.	.
!	!	!	!	!	!	!	!	!LO:TX:t=P:problem:kreska pseudotaktowa	!	!	!	!	!	!	!
.	.	.	.	.	.	.	.	4d\	.	.	.	4a\	-ſe-	.	.
!LO:TX:t=P:problem:kreska pseudotaktowa	!	!	!	!	!	!	!	!	!	!	!	!LO:TX:t=P:problem:kreska pseudotaktowa	!	!	!
*	*	*	*	*	*	*	*	*	*	*Xlig	*	*	*	*	*
=24-	=24-	=24-	=24-	=24-	=24-	=24-	=24-	=24-	=24-	=24-	=24-	=24-	=24-	=24-	=24-
!	!	!	!	!	!	!	!	!	!	!LO:TX:a:t=4	!	!	!	!	!
2E\	-ſe-	00r	.	2B\	-re-	00r	.	2e\	-re-	00r	.	2g#X\	-re-	00r	.
!LO:TX:t=P:problem:kreska pseudotaktowa	!	!	!	!	!	!	!	!	!	!	!	!LO:TX:t=P:problem:kreska pseudotaktowa	!	!	!
2AA/	-re-	.	.	2c\	-re	.	.	1f	.	.	.	2a\	-re	.	.
!LO:LB:g=original	!	!	!	!	!	!	!	!	!	!	!	!	!	!	!
2BBny/	-re	.	.	2d\	no-	.	.	.	.	.	.	1g#	no-	.	.
!LO:TX:t=P:problem:kreska pseudotaktowa	!	!	!	!	!	!	!	!	!	!	!	!	!	!	!
2C/	no-	.	.	4c\	.	.	.	2.e\	-re	.	.	.	.	.	.
!	!	!	!	!LO:TX:t=P:problem:kreska pseudotaktowa	!	!	!	!	!	!	!	!	!	!	!
.	.	.	.	4B\	.	.	.	.	.	.	.	.	.	.	.
=25-	=25-	=25-	=25-	=25-	=25-	=25-	=25-	=25-	=25-	=25-	=25-	=25-	=25-	=25-	=25-
!	!	!	!	!	!	!	!	!	!	!	!	!LO:TX:t=P:problem:kreska pseudotaktowa	!	!	!
1D	.	.	.	0A	-bis	.	.	.	.	.	.	1fny	.	.	.
.	.	.	.	.	.	.	.	4d\	.	.	.	.	.	.	.
.	.	.	.	.	.	.	.	1d	no-	.	.	.	.	.	.
!LO:TX:t=P:problem:kreska pseudotaktowa	!	!	!	!	!	!	!	!	!	!	!	!LO:TX:t=P:problem:kreska pseudotaktowa	!	!	!
1AA	.	.	.	.	.	.	.	.	.	.	.	1e	-bis	.	.
!	!	!	!	!	!	!	!	!LO:TX:t=P:problem:kreska pseudotaktowa	!	!	!	!	!	!	!
.	.	.	.	.	.	.	.	2c#X\	-bis	.	.	.	.	.	.
=26-	=26-	=26-	=26-	=26-	=26-	=26-	=26-	=26-	=26-	=26-	=26-	=26-	=26-	=26-	=26-
*	*	*	*	*	*	*	*	*	*	*	*	*	*ij	*	*
!LO:TX:t=P:problem:kreska pseudotaktowa	!	!	!	!LO:TX:t=P:problem:kreska pseudotaktowa	!	!	!	!	!	!	!	!LO:LB:g=original	!	!	!
1D	-bis	2r	.	1A	.	2r	.	1d	.	2r	.	4f#X/	Mi-	2r	.
.	.	.	.	.	.	.	.	.	.	.	.	2a\	.	.	.
*	*	*	*ij	*	*	*	*	*	*	*	*	*	*	*	*
!	!	!	!	!	!	!	!	!	!	!LO:TX:t=P:problem:kreska pseudotaktowa	!	!	!	!	!
!	!	!LO:TX:t=P:problem:kreska pseudotaktowa	!	!	!	!	!	!	!	!LO:TX:a:t=P:problem:# above	!	!	!	!	!
.	.	2D/	Mi-	.	.	2A/	Mi-	.	.	2f#X\	Mi-	.	.	1dd	Mi-
!	!	!	!	!	!	!	!	!	!	!	!	!LO:TX:t=P:problem:kreska pseudotaktowa	!	!	!
.	.	.	.	.	.	.	.	.	.	.	.	4dd\	-ſe-	.	.
2r	.	1G	-ſe-	4r	.	1B	-ſe-	4r	.	2g\	-ſe-	2dd\	-re-	.	.
.	.	.	.	2G/	Mi-	.	.	2g\	Mi-	.	.	.	.	.	.
*	*ij	*	*	*	*	*	*	*	*	*	*	*	*	*	*
!LO:TX:t=P:problem:kreska pseudotaktowa	!	!	!	!	!	!	!	!	!	!	!	!	!	!LO:TX:t=P:problem:kreska pseudotaktowa	!
2GG/	Mi	.	.	.	.	.	.	.	.	4.d\	-re-	2dd\	-re	2b\	-ſe-
!	!	!	!	!	!	!	!	!LO:TX:t=P:problem:kreska pseudotaktowa	!	!	!	!	!	!	!
.	.	.	.	4G/	-ſe-	.	.	4g\	-ſe-	.	.	.	.	.	.
.	.	.	.	.	.	.	.	.	.	8e\	.	.	.	.	.
=27-	=27-	=27-	=27-	=27-	=27-	=27-	=27-	=27-	=27-	=27-	=27-	=27-	=27-	=27-	=27-
1D	-ſe-	1D	-re-	1A	-re-	2d\	-re-	1f	-re-	4fny\	-re	1dd	no-	1a	-re-
.	.	.	.	.	.	.	.	.	.	4d\	.	.	.	.	.
!	!	!	!	!	!	!LO:TX:t=P:problem:kreska pseudotaktowa	!	!	!	!	!	!	!	!	!
.	.	.	.	.	.	2A\	-re	.	.	2.a\	no-	.	.	.	.
!LO:TX:t=P:problem:kreska pseudotaktowa	!	!LO:TX:t=P:problem:kreska pseudotaktowa	!	!LO:TX:t=P:problem:kreska pseudotaktowa	!	!	!	!	!	!	!	!LO:TX:t=P:problem:kreska pseudotaktowa	!	!	!
1AA	-re-	1A	-re	1A	-re	2.c\	no-	2e\	-re	.	.	1cc	-bis	2a\	-re
*	*	*	*	*	*	*	*	*	*	*	*	*	*	*	*
.	.	.	.	.	.	.	.	.	.	8g\L	.	.	.	.	.
.	.	.	.	.	.	.	.	.	.	8f\J	.	.	.	.	.
!	!	!	!	!	!	!	!	!	!	!LO:TX:t=P:problem:kreska pseudotaktowa	!	!	!	!	!
.	.	.	.	.	.	.	.	1a\	no-	2e\	-bis	.	.	2.ee\	Mi-
.	.	.	.	.	.	8B\L	.	.	.	.	.	.	.	.	.
.	.	.	.	.	.	8A\J	.	.	.	.	.	.	.	.	.
=28-	=28-	=28-	=28-	=28-	=28-	=28-	=28-	=28-	=28-	=28-	=28-	=28-	=28-	=28-	=28-
2.E\	-re	1E	no-	4r	.	2B\	.	.	.	1.e	No-	4r	.	.	.
.	.	.	.	4E/	Mi-	.	.	.	.	.	.	4b\	Mi-	8dd\L	-ſe-
.	.	.	.	.	.	.	.	.	.	.	.	.	.	8cc\J	.
!	!	!	!	!LO:TX:t=P:problem:kreska pseudotaktowa	!	!LO:TX:t=P:problem:kreska pseudotaktowa	!	!	!	!	!	!	!	!LO:TX:t=P:problem:kreska pseudotaktowa	!
.	.	.	.	2G/	.	2B\	-bis	1g	-bis	.	.	1ee	-ſe-	2b\	-re-
!LO:TX:t=P:problem:kreska pseudotaktowa	!	!	!	!	!	!	!	!	!	!	!	!	!	!	!
4D/	no-	.	.	.	.	.	.	.	.	.	.	.	.	.	.
4C/	.	2E\	-bis	2E/	-ſe-	2r	.	.	.	.	.	.	.	2cc\	-re
*	*	*	*Xij	*	*	*	*ij	*	*	*	*	*	*	*	*
4BB/	.	.	.	.	.	.	.	.	.	.	.	.	.	.	.
!	!	!	!	!	!	!	!	!LO:TX:t=P:problem:kreska pseudotaktowa	!	!	!	!	!	!	!
1AA/	.	1A\	Mi-	4E/	-re-	2e\	Mi-	2a\	.	2c/	.	1cc\	-re-	1ee\	no-
!	!	!	!	!LO:TX:t=P:problem:kreska pseudotaktowa	!	!	!	!	!	!	!	!	!	!	!
.	.	.	.	4A/	-re	.	.	.	.	.	.	.	.	.	.
=29-	=29-	=29-	=29-	=29-	=29-	=29-	=29-	=29-	=29-	=29-	=29-	=29-	=29-	=29-	=29-
*	*	*	*	*	*	*	*	*	*ij	*	*	*	*	*	*
!	!	!	!	!	!	!	!	!	!	!LO:TX:a:t=4	!	!	!	!	!
.	.	.	.	2c\	Mi-	1E	-ſe-	2A/	Mi-	00e	-bis	.	.	.	.
!LO:TX:t=P:problem:kreska pseudotaktowa	!	!LO:TX:t=P:problem:kreska pseudotaktowa	!	!LO:TX:t=P:problem:kreska pseudotaktowa	!	!	!	!	!	!	!	!LO:TX:t=P:problem:kreska pseudotaktowa	!	!	!
2E\	.	2G#X\	-ſe-	2e\	-ſe-	.	.	2B/	-ſe-	.	.	2b\	-re	2ee\	.
0AA	.	2A\	-re-	4e\	-re-	2A/	-re-	2.cny\	-re-	.	.	0a	no-	0cc	.
.	.	.	.	4d\	.	.	.	.	.	.	.	.	.	.	.
!	!	!	!	!	!	!LO:TX:t=P:problem:kreska pseudotaktowa	!	!	!	!	!	!	!	!	!
.	.	2A\	-re	4c\	-re	2A/	-re	.	.	.	.	.	.	.	.
!	!	!	!	!LO:TX:t=P:problem:kreska pseudotaktowa	!	!	!	!LO:TX:t=P:problem:kreska pseudotaktowa	!	!	!	!	!	!	!
.	.	.	.	4B\	.	.	.	4d\	-re	.	.	.	.	.	.
=30-	=30-	=30-	=30-	=30-	=30-	=30-	=30-	=30-	=30-	=30-	=30-	=30-	=30-	=30-	=30-
!	!	!	!	!LO:LB:g=original	!	!LO:PB:g=original	!	!	!	!	!	!	!	!	!
.	.	1AA	no-	2A/	no-	2.A/	no-	2e\	no-	.	.	.	.	.	.
.	.	.	.	2E/	.	.	.	2A/	.	.	.	.	.	.	.
.	.	.	.	.	.	4E/	.	.	.	.	.	.	.	.	.
1%5EE;>	-bis	1%5E	-bis	1%5E	-bis-	1%5G#X	-bis	1%5B	-bis	.	.	1%5b	-bis	1%5b	-bis-
*	*Xij	*	*	*	*	*	*Xij	*	*Xij	*	*	*	*Xij	*	*
=31-	=31-	=31-	=31-	=31-	=31-	=31-	=31-	=31-	=31-	=31-	=31-	=31-	=31-	=31-	=31-
!	!	!	!	!	!	!	!	!	!	!LO:N:vis=0	!	!	!	!	!
.	.	.	.	.	.	.	.	.	.	00e	.	.	.	.	.
=32-	=32-	=32-	=32-	=32-	=32-	=32-	=32-	=32-	=32-	=32-	=32-	=32-	=32-	=32-	=32-
.	.	.	.	.	.	.	.	.	.	.	.	.	.	.	.
=-	=-	=-	=-	=-	=-	=-	=-	=-	=-	=-	=-	=-	=-	=-	=-
*-	*-	*-	*-	*-	*-	*-	*-	*-	*-	*-	*-	*-	*-	*-	*-
!!!system-decoration: [(s1,s2,s3,s4,s5,s6,s7,s8)]
!!!RDF**kern: < = below
!!!RDF**kern: > = above
!!!ENC: Marta Chmielewska
!!!END: 2021-08-09
!!!ENC:Anastazja Marusiak
!!!END:2021-07-15
